X:1
T:Fredmans Epistel nr. 75
T:Fredmans Epistel nr. 75
T:Halfdan Kjerulf
T:C. M. Bellman
C:Halfdan Kjerulf
Z:C. M. Bellman
%%score [ 1 2 3 4 ]
L:1/8
Q:1/4=72
M:3/4
K:F
V:1 treble-8 nm="Tenor"
V:2 treble-8 nm="Tenor"
V:3 bass nm="Bass"
V:4 bass nm="Bass"
V:1
"^Andante con moto"!mp! .F/ .G/ .F/ .G/ A A A A | A/ B/ A/ B/ c c c c | c A d B A c | %3
w: Skrat- ta mi- na barn och vän- ner,|säg om nå- gon af er kän- ner|den som står och spän- ner|
!p! f/ c/ c/ c/ c4 | !>!A2 (3F A c (3f c A | !>!G2 (3E G c (3e c G |!p! (3A ^c d =c2 =B2 | %7
w: sto- ra Dul- ci- an.|Än den med pe- ru- ken, med|skinn- för- klä för bu- ken och|kapp- roc- ken af bul-|
"^rit." c6 || z6 |!p!"^cresc." E/ F/ E/ F/ G G G G |"^(Oboe)" Ac !>!c2 !>!c2 | !>!B2 !>!c2 z2 | %12
w: dan.||hör hur han Ho- bo- jan pi- nar;|||
 (A/B/) (A/B/) c c c c | (c3 d) c2 |!p! f2 f2 f2 | (f>c) c2 z2 |!p! (c/B/) (A/B/) c!<(! c c c | %17
w: Gub- * ben _ blå- ser så han|tvi- * nar.|Un po- co|len- * to!|Rö- * ret _ strängt han kni- per|
 (d/c/) (B/!<)!c/) d d (d/f/) (e/f/) |!>(! (e/d/) (c/B/) A2!>)! (cB) | A6 |] %20
w: och _ med _ tru- ten pi- * per, _|gam- * mal, _ snäll och _|van.|
V:2
!mp! .F/ .G/ .F/ .G/ A A A A | F/ G/ F/ G/ F F F F | A F B G A G |!p! A/ G/ F/ E/ (E2 F2) | %4
w: Skrat- ta mi- na barn och vän- ner,|säg om nå- gon af er kän- ner|den som står och spän- ner|sto- ra Dul- ci- an. _|
 !>!c2 (3c c c (3c c c | !>!e2 (3e e e (3e e e |!p! (3A A A c2 =B2 | E6 || z6 | %9
w: Än den med pe- ru- ken, med|skinn- för- klä för bu- ken och|kapp- roc- ken af bul-|dan.||
!p!"^cresc." E/ F/ E/ F/ E E E E | Ac !>!cB !>!BA | B/A/G/A/ G2 z2 | (F/G/) (F/G/) A A A A | %13
w: hör hur han Ho- bo- jan pi- nar;|||Gub- * ben _ blå- ser så han|
 (A3 B) A2 |!p! c2 e2 d2 | c2 c2 z2 |!p! (A/G/) (F/G/) A!<(! A A A | %17
w: tvi- * nar.|Un po- co|len- to!|Rö- * ret _ strängt han kni- per|
 (B/A/) (G/!<)!A/) B B (B/d/) (^c/d/) |!>(! (c/B/) (A/G/) A2!>)! G2 | F6 |] %20
w: och _ med _ tru- ten pi- * per, _|gam- * mal, _ snäll och|van.|
V:3
!mp! .F,/ .G,/ .F,/ .G,/ A, A, A, A, | F,/ G,/ F,/ G,/ A, A, A, A, | F, F, F, F, F, E, | %3
w: Skrat- ta mi- na barn och vän- ner,|säg om nå- gon af er kän- ner|den som står och spän- ner|
!p! F,/ E,/ A,/ B,/ (B,2 A,2) | !>!A,2 (3A, A, A, (3A, A, A, | !>!G,2 (3G, G, G, (3G, G, G, | %6
w: sto- ra Dul- ci- an. _|Än den med pe- ru- ken, med|skinn- för- klä för bu- ken och|
!p! (3A, G, F, E,2 D,2 | C,6 ||!p! C,/ D,/ C,/ D,/ E, E, E, E, | %9
w: kapp- roc- ken af bul-|dan.|Bis- ter han mot no- ten gri- nar;|
"^cresc." C,/ C,/ C,/ C,/ C, C, C, C, | F,A, !>!A,G, !>!G,F, | G,/F,/E,/F,/ E,2 z2 | %12
w: hör hur han Ho- bo- jan pi- nar;|||
 F, F, F, F, F, F, | F,4 F,2 |!p! A,2 C2 A,2 | (A,>B,)"^(Oboe)" C C CC | C3!<(! F, F,F, | %17
w: Gub- ben blå- ser så han|tvi- nar.|Un po- co|len- * to! * * *||
 F,3!<)! F, F,F, |!>(! F, F, F,2!>)! E,2 | C,6 |] %20
w: |gam- mal, snäll och|van.|
V:4
 z6 |!mp! F,/ F,/ F,/ F,/ F, F, F, F, | F, F, B,, D, C, C, |!p! F,,/ C,/ F,/ C,/ (C,2 F,,2) | %4
w: |säg om nå- gon af er kän- ner|den som står och spän- ner|sto- ra Dul- ci- an. _|
 !>!F,2 (3F, F, F, (3F, F, F, | !>!C,2 (3C, C, C, (3C, C, C, |!p! (3F, E, D, G,,2 G,,2 | %7
w: Än den med pe- ru- ken, med|skinn- för- klä för bu- ken och|kapp- roc- ken af bul-|
 C,"^(blåses)" CG,E, C,2 ||!p! C,/ D,/ C,/ D,/ C, C, C, C, |"^cresc." C,/ C,/ C,/ C,/ C, C, C, C, | %10
w: dan. * * * *|Bis- ter han mot no- ten gri- nar;|hör hur han Ho- bo- jan pi- nar;|
"_(blåses)" C,2 !>!E,2 !>!F,2 | !>!C2!p! C, C, C, C, | F,,4 F,2 | F,2 F,,2 z2 |!p! F,2 F,2 F,2 | %15
w: |* Gub- ben blå- ser|så han|tvi- nar|Un po- co|
 (F,>G,)"^(blåses)" A, A, A,A, | F,3!<(! F, F,F, | B,,3!<)! B,, B,,B,, | %18
w: len- * to! * * *|||
!>(! B,, (C,/D,/) C,2!>)! C,2 | F,,6 |] %20
w: gam- mal, _ snäll och|van.|

